X:2
T:Bandelena March
T:aka - March Sarabande
R:march
D:Cape Breton Fiddle and Piano Music, The Beaton Family of Mabou
Z:Paul Stewart Cranford (P.S.C.), <http://www.cranfordpub.com>
L:1/8
M:C|
Q:300
K:D
(3(ABc)|d2 f2 A2 f2|d>ef<g a2 fe|d2 f2 a>fd<f|e4 e>gf<e|
d2 f2 A2 f2|d>ef<g a2 ab|a>fd>g f2 e2|d4 d2:|
|:f>e|d>dd<f c>cc<e|B>cd<e f2 fe|d>dd<f B>BB<d|c2 e2 e>gf<e|
d>dd<f c>cc<e|B>cd<e f2 fg|a>fd>g f2 e2|d4 d2:|
